X: 33928
T: Red-Haired Girl, The
R: slip jig
M: 9/8
K: Adorian
c2A AEA cBA|BAG Gge dBG|~c2A AEA cBA|Bge dBG A2B|
c2A AEA cBA|~B3 Gge dBG|~c2A AEA cBA|Bge dBG AB/c/d||
e2a {b}age aba|~g2e dBd ged|e2a {b}age aba|gfe dBG AB/c/d|
eab age aba|~g2e dBG GAB|cec (3A/B/c/dB AGE|Gge dBG A2B||

